communes/4252.svg

<?xml version="1.0" encoding="UTF-8"?>
<svg version="1.0" viewBox="0 0 360.39 402.85" xmlns="http://www.w3.org/2000/svg">
<defs>
<clipPath id="a">
<path d="m354.48 210.24h63.71v-71.64h-63.71v71.64z"/>
</clipPath>
<clipPath id="b">
<path d="m354.48 210.24h63.71v-71.64h-63.71v71.64z"/>
</clipPath>
</defs>
<g transform="translate(-209.6 -124.87)">
<g transform="matrix(4.2884 0 0 4.2884 -1554.8 -764.63)">
<g transform="matrix(1.25 0 0 1.25 -29.465 36.364)" clip-path="url(#b)">
<path d="m354.59 138.71h63.5v39.68 1.62l-0.17 1.62-0.17 1.57-0.28 1.57-0.39 1.57-0.4 1.51-0.5 1.46-0.56 1.45-0.67 1.4-0.67 1.34-0.78 1.34-0.79 1.29-0.89 1.23-0.96 1.23-1.01 1.13-1.05 1.12-1.07 1.06-1.18 0.95-1.17 0.95-1.29 0.9-1.29 0.84-1.29 0.72-1.4 0.73-1.4 0.62-1.45 0.55-1.46 0.51-1.51 0.45-1.52 0.33-1.56 0.28-1.62 0.23-1.57 0.11-1.68 0.06-1.63-0.06-1.62-0.11-1.57-0.23-1.56-0.28-1.52-0.33-1.51-0.45-1.51-0.51-1.4-0.55-1.4-0.62-1.4-0.73-1.34-0.72-1.29-0.84-1.23-0.9-2.36-1.9-1.05-1.06-1.07-1.12-1.01-1.13-0.95-1.23-0.9-1.23-0.79-1.29-0.78-1.34-0.72-1.34-0.62-1.4-0.56-1.45-0.5-1.46-0.45-1.51-0.34-1.57-0.28-1.57-0.22-1.57-0.12-1.62-0.05-1.62v-39.68z" fill-rule="evenodd"/>
</g>
<g transform="matrix(1.25 0 0 1.25 -29.465 36.364)" clip-path="url(#a)" fill-rule="evenodd">
<path d="m355.99 140.11h60.69v38.11 0 1.57l-0.11 1.57-0.21 1.51-0.29 1.51-0.34 1.46-0.39 1.45-1 2.8-0.62 1.34-0.67 1.34-0.73 1.29-0.79 1.23-0.84 1.18-0.89 1.18-0.95 1.06-1.01 1.06-1.06 1-1.12 1.02-1.12 0.89-1.24 0.84-1.22 0.79-1.24 0.73-1.35 0.66-1.34 0.62-1.34 0.56-1.45 0.45-1.41 0.44-1.45 0.34-1.51 0.28-1.51 0.17-1.57 0.11-1.57 0.06v0l-1.57-0.06-1.51-0.11-1.51-0.17-1.52-0.28-1.45-0.34-1.45-0.44-1.41-0.45-1.39-0.56-1.35-0.62-1.29-0.66-1.28-0.73-1.23-0.79-1.18-0.84-1.12-0.89-1.13-1.02-1.06-1-1-1.06-0.96-1.06-0.89-1.18-0.84-1.18-0.79-1.23-0.73-1.29-0.66-1.34-0.63-1.34-0.55-1.4-0.45-1.4-0.45-1.45-0.33-1.46-0.22-1.51-0.23-1.51-0.11-1.57-0.06-1.57v-38.11zm46.59 57.93 0.05-36.21h2.41v-8.34l2.74 0.05-0.05-1.91-21.39-8.34v0l-21.28 8.63v0 1.62l2.69-0.05v8.28h2.35v36.38l32.48-0.11z" fill="#f00000" stroke="#f00000" stroke-linecap="round" stroke-linejoin="round" stroke-miterlimit="10" stroke-width=".12"/>
<path d="m381.58 197.25-4.87-0.05 0.05-4.32 4.88 0.07-0.06 4.3z" fill="#fff"/>
<path d="m370.66 197.2v-4.2l5.49-0.12v4.32h-5.49z" fill="#fff"/>
<path d="m391.1 197.2v-4.32h4.87v4.32h-4.87z" fill="#fff"/>
<path d="m396.64 197.2-0.06-4.32 5.05 0.07-0.06 4.19-4.93 0.06z" fill="#fff"/>
<path d="m379.57 192.38h-6.17l0.06-4.81h6.05l0.06 4.81z" fill="#fff"/>
<path d="m372.85 192.38-2.19-0.05v-4.87h2.07l0.12 4.92z" fill="#fff"/>
<path d="m380.12 192.38v-4.87h1.46l0.06 4.82-1.52 0.05z" fill="#fff"/>
<path d="m393 192.33h-1.85v-4.87h1.85v4.87z" fill="#fff"/>
<path d="m399.38 192.33h-5.77v-4.87h5.72l0.05 4.87z" fill="#fff"/>
<path d="m400.06 192.33-0.11-4.87 1.73 0.05v4.87l-1.62-0.05z" fill="#fff"/>
<path d="m376.21 186.95-5.55-0.05v-4.59l5.49-0.06 0.06 4.7z" fill="#fff"/>
<path d="m376.82 186.95v-4.7h1.29l0.95-0.05 0.56 0.05 2.63 1.63-0.27 0.78-0.23 0.72-0.17 0.79-0.06 0.73-4.7 0.05z" fill="#fff"/>
<path d="m395.97 186.9h-4.87l0.05-0.5-0.11-0.63-0.16-0.78-0.11-0.39-0.23-0.45 1.01-0.72 1.62-1.12 2.8-0.06v4.65z" fill="#fff"/>
<path d="m396.64 186.9-0.06-4.65 5.05 0.06 0.05 4.7-5.04-0.11z" fill="#fff"/>
<path d="m390.15 183.59-0.51-0.5-1.12-0.78-0.56-0.29 2.19-5.09 2.85-0.05-0.05 4.87-1.29 0.84-0.96 0.67-0.55 0.33z" fill="#fff"/>
<path d="m382.59 183.38-1.07-0.63-1.45-0.89v-4.93h2.96l1.18 2.81 0.62 1.45 0.22 0.67-1.34 0.56-0.57 0.39-0.27 0.28-0.28 0.29z" fill="#fff"/>
<path d="m387.4 181.81-0.33-0.06-0.39-0.05h-0.45-0.5l-1.02-2.41-1-2.41 5.77 0.05-2.08 4.88z" fill="#fff"/>
<path d="m372.79 181.75-2.18 0.06 0.05-4.88h2.13v4.82z" fill="#fff"/>
<path d="m373.52 181.75-0.12-0.05v-2.36-1.23-1.18h2.97 3.02v0.29l0.06 2.12-0.06 2.13v0.23l-5.87 0.05z" fill="#fff"/>
<path d="m399.38 181.58-5.82 0.05 0.05-4.75h5.77v4.7z" fill="#fff"/>
<path d="m401.68 181.58h-1.67v-4.65h1.67v4.65z" fill="#fff"/>
<path d="m376.15 176.38-5.49-0.06v-4.31l5.49-0.06v4.43z" fill="#fff"/>
<path d="m376.82 176.38v-4.43h6.05v4.37l-6.05 0.06z" fill="#fff"/>
<path d="m389.75 176.32h-6.21l-0.06-4.37h6.22l0.05 4.37z" fill="#fff"/>
<path d="m390.32 176.32 0.05-4.37h5.6v4.37h-5.65z" fill="#fff"/>
<path d="m396.7 176.32-0.06-4.37h5.15l-0.05 4.31-5.04 0.06z" fill="#fff"/>
<path d="m386.34 171.4-6.22 0.05-0.05-4.7 6.27 0.06v4.59z" fill="#fff"/>
<path d="m373.46 171.45-0.06-4.7h5.99l0.12 4.65-6.05 0.05z" fill="#fff"/>
<path d="m370.66 171.4-0.05-4.65h2.18l0.06 4.65h-2.19z" fill="#fff"/>
<path d="m386.95 171.4v-4.65h6.05v4.59l-6.05 0.06z" fill="#fff"/>
<path d="m393.56 171.4 0.05-4.65h5.77l-0.05 4.59-5.77 0.06z" fill="#fff"/>
<path d="m400.06 171.34-0.05-4.59h1.73v4.54l-1.68 0.05z" fill="#fff"/>
<path d="m376.21 166.08-5.55 0.05 0.06-4.3h5.49v4.25z" fill="#fff"/>
<path d="m376.88 166.19-0.06-4.36 6.05-0.06v4.42h-5.99z" fill="#fff"/>
<path d="m383.48 166.13v-4.36h6.27v4.36h-6.27z" fill="#fff"/>
<path d="m390.37 166.13 0.06-4.36h5.54l0.05 4.31-5.65 0.05z" fill="#fff"/>
<path d="m396.7 166.13-0.06-4.36 5.1 0.06v4.19l-5.04 0.11z" fill="#fff"/>
<path d="m404.09 153.54v7.28l-35.67-0.06v-7.27h1.57v4.53h9.4l0.06-4.53h2.53l0.05 4.41h8.96v-4.41h2.57l0.05 4.36 8.74 0.11-0.05-4.47 1.79 0.05z" fill="#fff"/>
<path d="m406.94 152.48-21.83 0.06h-19.27v-0.34l20.5-8.28 20.6 8.11v0.45z" fill="#fff"/>
</g>
</g>
</g>
</svg>

<?xml version="1.0" encoding="UTF-8" standalone="no"?>
<!-- Created with Inkscape (http://www.inkscape.org/) -->
<svg
   xmlns:svg="http://www.w3.org/2000/svg"
   xmlns="http://www.w3.org/2000/svg"
   version="1.0"
   width="360.39001"
   height="402.85001"
   id="svg2">
  <defs
     id="defs4">
    <clipPath
       id="clipPath3474">
      <path
         d="M 418.2,712.68 L 421.56,712.68 L 421.56,700.33 L 418.2,700.33 L 418.2,712.68 z"
         id="path3476" />
    </clipPath>
    <clipPath
       id="clipPath3438">
      <path
         d="M 354.48,710.28 L 418.19,710.28 L 418.19,638.65 L 354.48,638.65 L 354.48,710.28 z"
         id="path3440" />
    </clipPath>
    <clipPath
       id="clipPath3426">
      <path
         d="M 354.48,710.28 L 418.19,710.28 L 418.19,638.65 L 354.48,638.65 L 354.48,710.28 z"
         id="path3428" />
    </clipPath>
    <clipPath
       id="clipPath3356">
      <path
         d="M 418.2,612.72 L 421.56,612.72 L 421.56,600.36 L 418.2,600.36 L 418.2,612.72 z"
         id="path3358" />
    </clipPath>
    <clipPath
       id="clipPath3342">
      <path
         d="M 354.48,610.32 L 418.19,610.32 L 418.19,538.68 L 354.48,538.68 L 354.48,610.32 z"
         id="path3344" />
    </clipPath>
    <clipPath
       id="clipPath3330">
      <path
         d="M 354.48,610.32 L 418.19,610.32 L 418.19,538.68 L 354.48,538.68 L 354.48,610.32 z"
         id="path3332" />
    </clipPath>
    <clipPath
       id="clipPath3260">
      <path
         d="M 418.2,512.64 L 421.56,512.64 L 421.56,500.28 L 418.2,500.28 L 418.2,512.64 z"
         id="path3262" />
    </clipPath>
    <clipPath
       id="clipPath3176">
      <path
         d="M 354.48,510.24 L 418.19,510.24 L 418.19,438.61 L 354.48,438.61 L 354.48,510.24 z"
         id="path3178" />
    </clipPath>
    <clipPath
       id="clipPath3164">
      <path
         d="M 354.48,510.24 L 418.19,510.24 L 418.19,438.61 L 354.48,438.61 L 354.48,510.24 z"
         id="path3166" />
    </clipPath>
    <clipPath
       id="clipPath3088">
      <path
         d="M 418.2,412.68 L 421.56,412.68 L 421.56,400.32 L 418.2,400.32 L 418.2,412.68 z"
         id="path3090" />
    </clipPath>
    <clipPath
       id="clipPath3072">
      <path
         d="M 354.48,410.28 L 418.19,410.28 L 418.19,338.65 L 354.48,338.65 L 354.48,410.28 z"
         id="path3074" />
    </clipPath>
    <clipPath
       id="clipPath3060">
      <path
         d="M 354.48,410.28 L 418.19,410.28 L 418.19,338.65 L 354.48,338.65 L 354.48,410.28 z"
         id="path3062" />
    </clipPath>
    <clipPath
       id="clipPath2986">
      <path
         d="M 418.2,312.72 L 421.56,312.72 L 421.56,300.36 L 418.2,300.36 L 418.2,312.72 z"
         id="path2988" />
    </clipPath>
    <clipPath
       id="clipPath2966">
      <path
         d="M 354.48,310.32 L 418.19,310.32 L 418.19,238.69 L 354.48,238.69 L 354.48,310.32 z"
         id="path2968" />
    </clipPath>
    <clipPath
       id="clipPath2954">
      <path
         d="M 354.48,310.32 L 418.19,310.32 L 418.19,238.69 L 354.48,238.69 L 354.48,310.32 z"
         id="path2956" />
    </clipPath>
    <clipPath
       id="clipPath2882">
      <path
         d="M 418.2,212.64 L 421.56,212.64 L 421.56,200.29 L 418.2,200.29 L 418.2,212.64 z"
         id="path2884" />
    </clipPath>
    <clipPath
       id="clipPath2794">
      <path
         d="M 354.48,210.24 L 418.19,210.24 L 418.19,138.6 L 354.48,138.6 L 354.48,210.24 z"
         id="path2796" />
    </clipPath>
    <clipPath
       id="clipPath2782">
      <path
         d="M 354.48,210.24 L 418.19,210.24 L 418.19,138.6 L 354.48,138.6 L 354.48,210.24 z"
         id="path2784" />
    </clipPath>
    <clipPath
       id="clipPath2710">
      <path
         d="M 422.04,110.76 L 422.04,135.12 L 549.12,135.12 L 549.12,110.76 L 545.88,110.76 L 545.88,125.88 L 425.28,125.88 L 425.28,110.76 L 422.04,110.76 z"
         id="path2712" />
    </clipPath>
    <clipPath
       id="clipPath2688">
      <path
         d="M 351.12,110.76 L 351.12,135.12 L 354.48,135.12 L 354.48,110.76 L 351.12,110.76 z M 418.32,110.76 L 418.32,135.12 L 421.56,135.12 L 421.56,110.76 L 418.32,110.76 z"
         id="path2690" />
    </clipPath>
    <clipPath
       id="clipPath2666">
      <path
         d="M 288.84,110.76 L 288.84,135.12 L 350.64,135.12 L 350.64,110.76 L 347.4,110.76 L 347.4,132.84 L 292.08,132.84 L 292.08,110.76 L 288.84,110.76 z"
         id="path2668" />
    </clipPath>
    <clipPath
       id="clipPath2650">
      <path
         d="M 147.12,110.76 L 147.12,135.12 L 288.36,135.12 L 288.36,110.76 L 285.12,110.76 L 285.12,125.88 L 150.36,125.88 L 150.36,110.76 L 147.12,110.76 z"
         id="path2652" />
    </clipPath>
    <clipPath
       id="clipPath2634">
      <path
         d="M 67.68,110.76 L 67.68,135.12 L 146.64,135.12 L 146.64,110.76 L 143.28,110.76 L 143.28,125.88 L 70.92,125.88 L 70.92,110.76 L 67.68,110.76 z"
         id="path2636" />
    </clipPath>
    <clipPath
       id="clipPath2502">
      <path
         d="M 70.92,803.76 L 574.44,803.76 L 574.44,774.97 L 70.92,774.97 L 70.92,803.76 z"
         id="path2504" />
    </clipPath>
    <clipPath
       id="clipPath2480">
      <path
         d="M 70.92,803.76 L 574.44,803.76 L 574.44,801.97 L 70.92,801.97 L 70.92,803.76 z"
         id="path2482" />
    </clipPath>
    <clipPath
       id="clipPath2470">
      <path
         d="M 70.92,776.76 L 574.44,776.76 L 574.44,774.97 L 70.92,774.97 L 70.92,776.76 z"
         id="path2472" />
    </clipPath>
  </defs>
  <g
     transform="translate(-209.59819,-124.86754)"
     id="layer1">
    <g
       transform="matrix(4.2883946,0,0,4.2883946,-1554.8215,-764.62937)"
       id="g9777">
      <g
         transform="matrix(1.25,0,0,1.25,-29.465179,36.36435)"
         clip-path="url(#clipPath2782)"
         id="g2780">
        <g
           id="g2786">
          <path
             d="M 354.59,138.71 L 418.09,138.71 L 418.09,178.39 L 418.09,178.39 L 418.09,180.01 L 417.92,181.63 L 417.75,183.2 L 417.47,184.77 L 417.08,186.34 L 416.68,187.85 L 416.18,189.31 L 415.62,190.76 L 414.95,192.16 L 414.28,193.5 L 413.5,194.84 L 412.71,196.13 L 411.82,197.36 L 410.86,198.59 L 409.85,199.72 L 408.8,200.84 L 407.73,201.9 L 406.55,202.85 L 405.38,203.8 L 404.09,204.7 L 402.8,205.54 L 401.51,206.26 L 400.11,206.99 L 398.71,207.61 L 397.26,208.16 L 395.8,208.67 L 394.29,209.12 L 392.77,209.45 L 391.21,209.73 L 389.59,209.96 L 388.02,210.07 L 386.34,210.13 L 386.34,210.13 L 384.71,210.07 L 383.09,209.96 L 381.52,209.73 L 379.96,209.45 L 378.44,209.12 L 376.93,208.67 L 375.42,208.16 L 374.02,207.61 L 372.62,206.99 L 371.22,206.26 L 369.88,205.54 L 368.59,204.7 L 367.36,203.8 L 366.18,202.85 L 365,201.9 L 363.95,200.84 L 362.88,199.72 L 361.87,198.59 L 360.92,197.36 L 360.02,196.13 L 359.23,194.84 L 358.45,193.5 L 357.73,192.16 L 357.11,190.76 L 356.55,189.31 L 356.05,187.85 L 355.6,186.34 L 355.26,184.77 L 354.98,183.2 L 354.76,181.63 L 354.64,180.01 L 354.59,178.39 L 354.59,138.71 z"
             id="path2788"
             style="fill:#000000;fill-opacity:1;fill-rule:evenodd;stroke:none" />
        </g>
      </g>
      <g
         transform="matrix(1.25,0,0,1.25,-29.465179,36.36435)"
         clip-path="url(#clipPath2794)"
         id="g2792">
        <path
           d="M 355.99,140.11 L 416.68,140.11 L 416.68,178.22 L 416.68,178.22 L 416.68,179.79 L 416.57,181.36 L 416.36,182.87 L 416.07,184.38 L 415.73,185.84 L 415.34,187.29 L 414.84,188.69 L 414.34,190.09 L 413.72,191.43 L 413.05,192.77 L 412.32,194.06 L 411.53,195.29 L 410.69,196.47 L 409.8,197.65 L 408.85,198.71 L 407.84,199.77 L 406.78,200.77 L 405.66,201.79 L 404.54,202.68 L 403.3,203.52 L 402.08,204.31 L 400.84,205.04 L 399.49,205.7 L 398.15,206.32 L 396.81,206.88 L 395.36,207.33 L 393.95,207.77 L 392.5,208.11 L 390.99,208.39 L 389.48,208.56 L 387.91,208.67 L 386.34,208.73 L 386.34,208.73 L 384.77,208.67 L 383.26,208.56 L 381.75,208.39 L 380.23,208.11 L 378.78,207.77 L 377.33,207.33 L 375.92,206.88 L 374.53,206.32 L 373.18,205.7 L 371.89,205.04 L 370.61,204.31 L 369.38,203.52 L 368.2,202.68 L 367.08,201.79 L 365.95,200.77 L 364.89,199.77 L 363.89,198.71 L 362.93,197.65 L 362.04,196.47 L 361.2,195.29 L 360.41,194.06 L 359.68,192.77 L 359.02,191.43 L 358.39,190.09 L 357.84,188.69 L 357.39,187.29 L 356.94,185.84 L 356.61,184.38 L 356.39,182.87 L 356.16,181.36 L 356.05,179.79 L 355.99,178.22 L 355.99,140.11 z M 402.58,198.04 L 402.63,161.83 L 405.04,161.83 L 405.04,153.49 L 407.78,153.54 L 407.73,151.63 L 386.34,143.29 L 386.34,143.29 L 365.06,151.92 L 365.06,151.92 L 365.06,153.54 L 367.75,153.49 L 367.75,161.77 L 370.1,161.77 L 370.1,198.15 L 402.58,198.04 z"
           id="path2798"
           style="fill:#f00000;fill-opacity:1;fill-rule:evenodd;stroke:#f00000;stroke-width:0.12;stroke-linecap:round;stroke-linejoin:round;stroke-miterlimit:10;stroke-dasharray:none;stroke-opacity:1" />
        <path
           d="M 381.58,197.25 L 376.71,197.2 L 376.76,192.88 L 381.64,192.95 L 381.58,197.25 z"
           id="path2800"
           style="fill:#ffffff;fill-opacity:1;fill-rule:evenodd;stroke:none" />
        <path
           d="M 370.66,197.2 L 370.66,193 L 376.15,192.88 L 376.15,197.2 L 370.66,197.2 z"
           id="path2802"
           style="fill:#ffffff;fill-opacity:1;fill-rule:evenodd;stroke:none" />
        <path
           d="M 391.1,197.2 L 391.1,192.88 L 395.97,192.88 L 395.97,197.2 L 391.1,197.2 z"
           id="path2804"
           style="fill:#ffffff;fill-opacity:1;fill-rule:evenodd;stroke:none" />
        <path
           d="M 396.64,197.2 L 396.58,192.88 L 401.63,192.95 L 401.57,197.14 L 396.64,197.2 z"
           id="path2806"
           style="fill:#ffffff;fill-opacity:1;fill-rule:evenodd;stroke:none" />
        <path
           d="M 379.57,192.38 L 373.4,192.38 L 373.46,187.57 L 379.51,187.57 L 379.57,192.38 z"
           id="path2808"
           style="fill:#ffffff;fill-opacity:1;fill-rule:evenodd;stroke:none" />
        <path
           d="M 372.85,192.38 L 370.66,192.33 L 370.66,187.46 L 372.73,187.46 L 372.85,192.38 z"
           id="path2810"
           style="fill:#ffffff;fill-opacity:1;fill-rule:evenodd;stroke:none" />
        <path
           d="M 380.12,192.38 L 380.12,187.51 L 381.58,187.51 L 381.64,192.33 L 380.12,192.38 z"
           id="path2812"
           style="fill:#ffffff;fill-opacity:1;fill-rule:evenodd;stroke:none" />
        <path
           d="M 393,192.33 L 391.15,192.33 L 391.15,187.46 L 393,187.46 L 393,192.33 z"
           id="path2814"
           style="fill:#ffffff;fill-opacity:1;fill-rule:evenodd;stroke:none" />
        <path
           d="M 399.38,192.33 L 393.61,192.33 L 393.61,187.46 L 399.33,187.46 L 399.38,192.33 z"
           id="path2816"
           style="fill:#ffffff;fill-opacity:1;fill-rule:evenodd;stroke:none" />
        <path
           d="M 400.06,192.33 L 399.95,187.46 L 401.68,187.51 L 401.68,192.38 L 400.06,192.33 z"
           id="path2818"
           style="fill:#ffffff;fill-opacity:1;fill-rule:evenodd;stroke:none" />
        <path
           d="M 376.21,186.95 L 370.66,186.9 L 370.66,182.31 L 376.15,182.25 L 376.21,186.95 z"
           id="path2820"
           style="fill:#ffffff;fill-opacity:1;fill-rule:evenodd;stroke:none" />
        <path
           d="M 376.82,186.95 L 376.82,182.25 L 376.82,182.25 L 378.11,182.25 L 379.06,182.2 L 379.62,182.25 L 379.62,182.25 L 382.25,183.88 L 382.25,183.88 L 381.98,184.66 L 381.75,185.38 L 381.58,186.17 L 381.52,186.9 L 376.82,186.95 z"
           id="path2822"
           style="fill:#ffffff;fill-opacity:1;fill-rule:evenodd;stroke:none" />
        <path
           d="M 395.97,186.9 L 391.1,186.9 L 391.1,186.9 L 391.15,186.4 L 391.04,185.77 L 390.88,184.99 L 390.77,184.6 L 390.54,184.15 L 390.54,184.15 L 391.55,183.43 L 393.17,182.31 L 393.17,182.31 L 395.97,182.25 L 395.97,186.9 z"
           id="path2824"
           style="fill:#ffffff;fill-opacity:1;fill-rule:evenodd;stroke:none" />
        <path
           d="M 396.64,186.9 L 396.58,182.25 L 401.63,182.31 L 401.68,187.01 L 396.64,186.9 z"
           id="path2826"
           style="fill:#ffffff;fill-opacity:1;fill-rule:evenodd;stroke:none" />
        <path
           d="M 390.15,183.59 L 390.15,183.59 L 389.64,183.09 L 389.08,182.7 L 388.52,182.31 L 387.96,182.02 L 390.15,176.93 L 393,176.88 L 392.95,181.75 L 392.95,181.75 L 391.66,182.59 L 390.7,183.26 L 390.15,183.59 L 390.15,183.59 z"
           id="path2828"
           style="fill:#ffffff;fill-opacity:1;fill-rule:evenodd;stroke:none" />
        <path
           d="M 382.59,183.38 L 382.59,183.38 L 381.52,182.75 L 380.07,181.86 L 380.07,181.86 L 380.07,176.93 L 383.03,176.93 L 383.03,176.93 L 384.21,179.74 L 384.83,181.19 L 385.05,181.86 L 385.05,181.86 L 384.38,182.14 L 383.71,182.42 L 383.14,182.81 L 382.87,183.09 L 382.59,183.38 L 382.59,183.38 z"
           id="path2830"
           style="fill:#ffffff;fill-opacity:1;fill-rule:evenodd;stroke:none" />
        <path
           d="M 387.4,181.81 L 387.4,181.81 L 387.07,181.75 L 386.68,181.7 L 386.68,181.7 L 386.23,181.7 L 385.73,181.7 L 385.73,181.7 L 384.71,179.29 L 383.71,176.88 L 383.71,176.88 L 389.48,176.93 L 389.48,176.93 L 387.4,181.81 L 387.4,181.81 z"
           id="path2832"
           style="fill:#ffffff;fill-opacity:1;fill-rule:evenodd;stroke:none" />
        <path
           d="M 372.79,181.75 L 370.61,181.81 L 370.66,176.93 L 372.79,176.93 L 372.79,176.93 L 372.79,181.75 L 372.79,181.75 z"
           id="path2834"
           style="fill:#ffffff;fill-opacity:1;fill-rule:evenodd;stroke:none" />
        <path
           d="M 373.52,181.75 L 373.52,181.75 L 373.4,181.7 L 373.4,181.7 L 373.4,179.34 L 373.4,178.11 L 373.4,176.93 L 373.4,176.93 L 376.37,176.93 L 379.39,176.93 L 379.39,176.93 L 379.39,177.22 L 379.39,177.22 L 379.45,179.34 L 379.39,181.47 L 379.39,181.47 L 379.39,181.7 L 379.39,181.7 L 373.52,181.75 L 373.52,181.75 z"
           id="path2836"
           style="fill:#ffffff;fill-opacity:1;fill-rule:evenodd;stroke:none" />
        <path
           d="M 399.38,181.58 L 393.56,181.63 L 393.61,176.88 L 399.38,176.88 L 399.38,181.58 z"
           id="path2838"
           style="fill:#ffffff;fill-opacity:1;fill-rule:evenodd;stroke:none" />
        <path
           d="M 401.68,181.58 L 400.01,181.58 L 400.01,176.93 L 401.68,176.93 L 401.68,181.58 z"
           id="path2840"
           style="fill:#ffffff;fill-opacity:1;fill-rule:evenodd;stroke:none" />
        <path
           d="M 376.15,176.38 L 370.66,176.32 L 370.66,172.01 L 376.15,171.95 L 376.15,176.38 z"
           id="path2842"
           style="fill:#ffffff;fill-opacity:1;fill-rule:evenodd;stroke:none" />
        <path
           d="M 376.82,176.38 L 376.82,171.95 L 382.87,171.95 L 382.87,176.32 L 376.82,176.38 z"
           id="path2844"
           style="fill:#ffffff;fill-opacity:1;fill-rule:evenodd;stroke:none" />
        <path
           d="M 389.75,176.32 L 383.54,176.32 L 383.48,171.95 L 389.7,171.95 L 389.75,176.32 z"
           id="path2846"
           style="fill:#ffffff;fill-opacity:1;fill-rule:evenodd;stroke:none" />
        <path
           d="M 390.32,176.32 L 390.37,171.95 L 395.97,171.95 L 395.97,176.32 L 390.32,176.32 z"
           id="path2848"
           style="fill:#ffffff;fill-opacity:1;fill-rule:evenodd;stroke:none" />
        <path
           d="M 396.7,176.32 L 396.64,171.95 L 401.79,171.95 L 401.74,176.26 L 396.7,176.32 z"
           id="path2850"
           style="fill:#ffffff;fill-opacity:1;fill-rule:evenodd;stroke:none" />
        <path
           d="M 386.34,171.4 L 380.12,171.45 L 380.07,166.75 L 386.34,166.81 L 386.34,171.4 z"
           id="path2852"
           style="fill:#ffffff;fill-opacity:1;fill-rule:evenodd;stroke:none" />
        <path
           d="M 373.46,171.45 L 373.4,166.75 L 379.39,166.75 L 379.51,171.4 L 373.46,171.45 z"
           id="path2854"
           style="fill:#ffffff;fill-opacity:1;fill-rule:evenodd;stroke:none" />
        <path
           d="M 370.66,171.4 L 370.61,166.75 L 372.79,166.75 L 372.85,171.4 L 370.66,171.4 z"
           id="path2856"
           style="fill:#ffffff;fill-opacity:1;fill-rule:evenodd;stroke:none" />
        <path
           d="M 386.95,171.4 L 386.95,166.75 L 393,166.75 L 393,171.34 L 386.95,171.4 z"
           id="path2858"
           style="fill:#ffffff;fill-opacity:1;fill-rule:evenodd;stroke:none" />
        <path
           d="M 393.56,171.4 L 393.61,166.75 L 399.38,166.75 L 399.33,171.34 L 393.56,171.4 z"
           id="path2860"
           style="fill:#ffffff;fill-opacity:1;fill-rule:evenodd;stroke:none" />
        <path
           d="M 400.06,171.34 L 400.01,166.75 L 401.74,166.75 L 401.74,171.29 L 400.06,171.34 z"
           id="path2862"
           style="fill:#ffffff;fill-opacity:1;fill-rule:evenodd;stroke:none" />
        <path
           d="M 376.21,166.08 L 370.66,166.13 L 370.72,161.83 L 376.21,161.83 L 376.21,166.08 z"
           id="path2864"
           style="fill:#ffffff;fill-opacity:1;fill-rule:evenodd;stroke:none" />
        <path
           d="M 376.88,166.19 L 376.82,161.83 L 382.87,161.77 L 382.87,166.19 L 376.88,166.19 z"
           id="path2866"
           style="fill:#ffffff;fill-opacity:1;fill-rule:evenodd;stroke:none" />
        <path
           d="M 383.48,166.13 L 383.48,161.77 L 389.75,161.77 L 389.75,166.13 L 383.48,166.13 z"
           id="path2868"
           style="fill:#ffffff;fill-opacity:1;fill-rule:evenodd;stroke:none" />
        <path
           d="M 390.37,166.13 L 390.43,161.77 L 395.97,161.77 L 396.02,166.08 L 390.37,166.13 z"
           id="path2870"
           style="fill:#ffffff;fill-opacity:1;fill-rule:evenodd;stroke:none" />
        <path
           d="M 396.7,166.13 L 396.64,161.77 L 401.74,161.83 L 401.74,166.02 L 396.7,166.13 z"
           id="path2872"
           style="fill:#ffffff;fill-opacity:1;fill-rule:evenodd;stroke:none" />
        <path
           d="M 404.09,153.54 L 404.09,160.82 L 368.42,160.76 L 368.42,153.49 L 369.99,153.49 L 369.99,158.02 L 379.39,158.02 L 379.45,153.49 L 381.98,153.49 L 382.03,157.9 L 390.99,157.9 L 390.99,153.49 L 393.56,153.49 L 393.61,157.85 L 402.35,157.96 L 402.3,153.49 L 404.09,153.54 z"
           id="path2874"
           style="fill:#ffffff;fill-opacity:1;fill-rule:evenodd;stroke:none" />
        <path
           d="M 406.94,152.48 L 406.94,152.48 L 385.11,152.54 L 365.84,152.54 L 365.84,152.54 L 365.84,152.2 L 365.84,152.2 L 386.34,143.92 L 386.34,143.92 L 406.94,152.03 L 406.94,152.48 z"
           id="path2876"
           style="fill:#ffffff;fill-opacity:1;fill-rule:evenodd;stroke:none" />
      </g>
    </g>
  </g>
</svg>
